Simply-Green-Circles/scalable/apps/distributor-logo-freebsd.svg

<svg xmlns="http://www.w3.org/2000/svg" width="48" height="48" viewBox="0 0 12.7 12.7"><path d="M6.34.07a6.29 6.29 0 0 0-6.29 6.3 6.29 6.29 0 0 0 6.3 6.28 6.29 6.29 0 0 0 6.28-6.29A6.29 6.29 0 0 0 6.34.07zM6.32 1l.01.01a5.4 5.4 0 0 1 5.4 5.4 5.4 5.4 0 0 1-5.4 5.41 5.4 5.4 0 0 1-5.41-5.4A5.4 5.4 0 0 1 6.32 1zm-3.4 2.17c-.13 0-.24.03-.3.1-.28.27.12 1.14.46 1.74.3-.53.74-.97 1.26-1.3a3.76 3.76 0 0 0-1.42-.54zm6.69.05a5.33 5.33 0 0 0-2.06.96c-.19.18-.02.65.37 1.04.4.4.86.56 1.04.38.19-.19 1.28-1.9.88-2.3-.05-.06-.13-.08-.23-.08zm-3.29.12a3.57 3.57 0 1 0 3.1 1.81l-.17.31c.05.2.04.35-.05.44-.2.2-.77-.01-1.28-.5l-.1-.1a2.27 2.27 0 0 1-.42-.56c-.18-.32-.23-.6-.09-.74.07-.07.19-.1.33-.07l.32-.19c-.49-.26-1.05-.4-1.64-.4z" fill="#2ca02c"/></svg>

<?xml version="1.0" encoding="UTF-8" standalone="no"?>
<svg
   xmlns:dc="http://purl.org/dc/elements/1.1/"
   xmlns:cc="http://creativecommons.org/ns#"
   xmlns:rdf="http://www.w3.org/1999/02/22-rdf-syntax-ns#"
   xmlns:svg="http://www.w3.org/2000/svg"
   xmlns="http://www.w3.org/2000/svg"
   xmlns:sodipodi="http://sodipodi.sourceforge.net/DTD/sodipodi-0.dtd"
   xmlns:inkscape="http://www.inkscape.org/namespaces/inkscape"
   width="48"
   height="48"
   viewBox="0 0 12.7 12.7"
   version="1.1"
   id="svg4"
   sodipodi:docname="distributor-logo-freebsd.svg"
   inkscape:version="0.92.4 (5da689c313, 2019-01-14)">
  <metadata
     id="metadata10">
    <rdf:RDF>
      <cc:Work
         rdf:about="">
        <dc:format>image/svg+xml</dc:format>
        <dc:type
           rdf:resource="http://purl.org/dc/dcmitype/StillImage" />
        <dc:title></dc:title>
      </cc:Work>
    </rdf:RDF>
  </metadata>
  <defs
     id="defs8" />
  <sodipodi:namedview
     pagecolor="#ffffff"
     bordercolor="#666666"
     borderopacity="1"
     objecttolerance="10"
     gridtolerance="10"
     guidetolerance="10"
     inkscape:pageopacity="0"
     inkscape:pageshadow="2"
     inkscape:window-width="1087"
     inkscape:window-height="480"
     id="namedview6"
     showgrid="false"
     inkscape:zoom="4.9166667"
     inkscape:cx="2.1355932"
     inkscape:cy="24"
     inkscape:window-x="0"
     inkscape:window-y="25"
     inkscape:window-maximized="0"
     inkscape:current-layer="svg4" />
  <path
     d="M 6.34,0.07 A 6.29,6.29 0 0 0 0.05,6.37 6.29,6.29 0 0 0 6.35,12.65 6.29,6.29 0 0 0 12.63,6.36 6.29,6.29 0 0 0 6.34,0.07 Z M 6.32,1 6.33,1.01 a 5.4,5.4 0 0 1 5.4,5.4 5.4,5.4 0 0 1 -5.4,5.41 A 5.4,5.4 0 0 1 0.92,6.42 5.4,5.4 0 0 1 6.32,1 Z M 2.92,3.17 C 2.79,3.17 2.68,3.2 2.62,3.27 2.34,3.54 2.74,4.41 3.08,5.01 3.38,4.48 3.82,4.04 4.34,3.71 A 3.76,3.76 0 0 0 2.92,3.17 Z M 9.61,3.22 A 5.33,5.33 0 0 0 7.55,4.18 C 7.36,4.36 7.53,4.83 7.92,5.22 8.32,5.62 8.78,5.78 8.96,5.6 9.15,5.41 10.24,3.7 9.84,3.3 9.79,3.24 9.71,3.22 9.61,3.22 Z M 6.32,3.34 a 3.57,3.57 0 1 0 3.1,1.81 L 9.25,5.46 C 9.3,5.66 9.29,5.81 9.2,5.9 9,6.1 8.43,5.89 7.92,5.4 L 7.82,5.3 A 2.27,2.27 0 0 1 7.4,4.74 C 7.22,4.42 7.17,4.14 7.31,4 7.38,3.93 7.5,3.9 7.64,3.93 L 7.96,3.74 C 7.47,3.48 6.91,3.34 6.32,3.34 Z"
     id="path2"
     inkscape:connector-curvature="0"
     style="fill:#2ca02c" />
</svg>
